X:12
T:Cuidando las ovejas
C:trad. La Almolda, Monegros
A:Huesca
B:"la gaita de boto aragonesa". PLIEGOS n 3. de la A.G.A.
O:La Almolda, Monegros
M:2/4
L:1/16
Q:1/4=120
K:Cm
g2(3fgfe2(3ded|c2>fgagf|e2efdcde|c2>ggagf|e2efdcde|c4c2cd
|:(3e2e2g2f2d2|e2e2c2cd|(3e2e2g2f2d2|e2e2gagf|e2efe2d2|c2c2cBcd|
e2egfedf|e4cBcd|e2egfedf|e2>fgagf|e2efdcde|c2>ggagf|e2f2dcde 
1|c4c2cd :|2c6
